packages/icons/svg/Fill/eye-off.svg

<svg fill="none" height="24" viewBox="0 0 24 24" width="24" xmlns="http://www.w3.org/2000/svg"><path clip-rule="evenodd" d="m19.407 17.993 1.3 1.3c.391.391.391 1.023 0 1.414-.195.195-.451.293-.707.293s-.512-.098-.707-.293l-2.707-2.707-.586-.586-1.345-1.345-.069-.069-2.5023-2.5023c-.0277.0015-.0556.0023-.0837.0023-.827 0-1.5-.673-1.5-1.5 0-.0281.0008-.056.0023-.0837l-3.21929-3.21929-1.751-1.751-2.239-2.239c-.391-.391-.391-1.023 0-1.414s1.023-.391 1.414 0l1.713 1.713 1.465 1.465 4.03129 4.03129c.0277-.0015.0556-.0023.0837-.0023.827 0 1.5.673 1.5 1.5 0 .0281-.0008.056-.0023.0837l3.9163 3.9163zm-10.81415-12.22876 2.79705 2.797c.199-.035.401-.061.61-.061 1.93 0 3.5 1.56996 3.5 3.49996 0 .209-.026.411-.061.61l2.682 2.683.834.834c1.522-1.388 2.498-2.907 2.913-3.63.176-.308.176-.687 0-.995-.638-1.112-4.162-6.68596-10.138-6.49896-1.184.031-2.25604.286-3.22805.671zm5.35515 11.01296 1.345 1.344.205.205c-.972.385-2.043.64-3.227.67-.082.003-.165.004-.246.004-5.86297 0-9.26297-5.405-9.89297-6.503-.176-.308-.176-.687 0-.995.415-.722 1.391-2.24096 2.913-3.62896l1.531 1.532 1.986 1.98496c-.036.199-.062.401-.062.61 0 1.93 1.56997 3.5 3.49997 3.5.209 0 .411-.026.61-.062l1.269 1.269z" fill="#6b7280" fill-rule="evenodd"/></svg>

<svg width="24" height="24" viewBox="0 0 24 24" fill="none" xmlns="http://www.w3.org/2000/svg">
<g id="Icon/Fill/eye-off">
<path id="Mask" fill-rule="evenodd" clip-rule="evenodd" d="M19.407 17.993L20.707 19.293C21.098 19.684 21.098 20.316 20.707 20.707C20.512 20.902 20.256 21 20 21C19.744 21 19.488 20.902 19.293 20.707L16.586 18L16 17.414L14.655 16.069L14.586 16L12.0837 13.4977C12.056 13.4992 12.0281 13.5 12 13.5C11.173 13.5 10.5 12.827 10.5 12C10.5 11.9719 10.5008 11.944 10.5023 11.9163L7.283 8.69701L5.532 6.94601L3.293 4.70701C2.902 4.31601 2.902 3.68401 3.293 3.29301C3.684 2.90201 4.316 2.90201 4.707 3.29301L6.42 5.00601L7.885 6.47101L11.9163 10.5023C11.944 10.5008 11.9719 10.5 12 10.5C12.827 10.5 13.5 11.173 13.5 12C13.5 12.0281 13.4992 12.056 13.4977 12.0837L17.414 16L19.407 17.993ZM8.5928 5.76421L11.3898 8.56121C11.5888 8.52621 11.7908 8.50021 11.9998 8.50021C13.9298 8.50021 15.4998 10.0702 15.4998 12.0002C15.4998 12.2092 15.4738 12.4112 15.4388 12.6102L18.1208 15.2932L18.9548 16.1272C20.4768 14.7392 21.4528 13.2202 21.8678 12.4972C22.0438 12.1892 22.0438 11.8102 21.8678 11.5022C21.2298 10.3902 17.7058 4.81621 11.7298 5.00321C10.5458 5.03421 9.4738 5.28921 8.5018 5.67421L8.5928 5.76421ZM13.948 16.7771L15.293 18.1211L15.498 18.3261C14.526 18.7111 13.455 18.9661 12.271 18.9961C12.189 18.9991 12.106 19.0001 12.025 19.0001C6.162 19.0001 2.762 13.5951 2.132 12.4971C1.956 12.1891 1.956 11.8101 2.132 11.5021C2.547 10.7801 3.523 9.26111 5.045 7.87311L6.576 9.40511L8.562 11.3901C8.526 11.5891 8.5 11.7911 8.5 12.0001C8.5 13.9301 10.07 15.5001 12 15.5001C12.209 15.5001 12.411 15.4741 12.61 15.4381L13.879 16.7071L13.948 16.7771Z" fill="#000000"/>
</g>
</svg>
